assets/icons/python.svg

<svg version="1.1" viewBox="0 0 24 24" xmlns="http://www.w3.org/2000/svg">
<g transform="translate(-1.5418e-7 -.00046865)">
<g>
<path d="m9.8594 2.0009c-1.58 0-2.8594 1.2794-2.8594 2.8594v1.6797h4.2891c.39 0 .71094.57094.71094.96094h-7.1406c-1.58 0-2.8594 1.2794-2.8594 2.8594v3.7812c0 1.58 1.2794 2.8594 2.8594 2.8594h1.1797v-2.6797c0-1.58 1.2716-2.8594 2.8516-2.8594h5.25c1.58 0 2.8594-1.2716 2.8594-2.8516v-3.75c0-1.58-1.2794-2.8594-2.8594-2.8594zm-.71875 1.6094c.4 0 .71875.12094.71875.71094s-.31875.89062-.71875.89062c-.39 0-.71094-.30062-.71094-.89062s.32094-.71094.71094-.71094z" fill="#3c78aa"/>
<path d="m17.959 7v2.6797c0 1.58-1.2696 2.8594-2.8496 2.8594h-5.25c-1.58 0-2.8594 1.2696-2.8594 2.8496v3.75a2.86 2.86 0 0 0 2.8594 2.8613h4.2812a2.86 2.86 0 0 0 2.8594 -2.8613v-1.6797h-4.291c-.39 0-.70898-.56898-.70898-.95898h7.1406a2.86 2.86 0 0 0 2.8594 -2.8613v-3.7793a2.86 2.86 0 0 0 -2.8594 -2.8594zm-9.6387 4.5137-.0039.0039c.01198-.0024.02507-.0016.03711-.0039zm6.5391 7.2754c.39 0 .71094.30062.71094.89062a.71 .71 0 0 1 -.71094 .70898c-.4 0-.71875-.11898-.71875-.70898s.31875-.89062.71875-.89062z" fill="#fdd835"/>
</g>
</g>
</svg>

<svg xmlns="http://www.w3.org/2000/svg" viewBox="0 0 24 24"><path fill="#0288d1" d="M9.86 2A2.86 2.86 0 0 0 7 4.86v1.68h4.29c.39 0 .71.57.71.96H4.86A2.86 2.86 0 0 0 2 10.36v3.781a2.86 2.86 0 0 0 2.86 2.86h1.18v-2.68a2.85 2.85 0 0 1 2.85-2.86h5.25c1.58 0 2.86-1.271 2.86-2.851V4.86A2.86 2.86 0 0 0 14.14 2zm-.72 1.61c.4 0 .72.12.72.71s-.32.891-.72.891c-.39 0-.71-.3-.71-.89s.32-.711.71-.711"/><path fill="#fdd835" d="M17.959 7v2.68a2.85 2.85 0 0 1-2.85 2.859H9.86A2.85 2.85 0 0 0 7 15.389v3.75a2.86 2.86 0 0 0 2.86 2.86h4.28A2.86 2.86 0 0 0 17 19.14v-1.68h-4.291c-.39 0-.709-.57-.709-.96h7.14A2.86 2.86 0 0 0 22 13.64V9.86A2.86 2.86 0 0 0 19.14 7zM8.32 11.513l-.004.004.038-.004zm6.54 7.276c.39 0 .71.3.71.89a.71.71 0 0 1-.71.71c-.4 0-.72-.12-.72-.71s.32-.89.72-.89"/></svg>
